build/img/advantage_4_mobile.svg

<svg width="57" height="63" viewBox="0 0 57 63" fill="none" xmlns="http://www.w3.org/2000/svg">
<path d="M3.51172 21.7227L5.55078 0.765625H25.5166V7.61914H12.1211L11.3848 16.4551C12.9329 15.4167 14.5283 14.8975 16.1709 14.8975C19.5693 14.8975 22.1842 16.1058 24.0156 18.5225C25.8659 20.9391 26.791 24.3564 26.791 28.7744C26.791 32.9092 25.696 36.2415 23.5059 38.7715C21.3158 41.3014 18.3893 42.5664 14.7266 42.5664C12.5553 42.5664 10.5446 42.0566 8.69434 41.0371C6.84408 39.9987 5.38086 38.5638 4.30469 36.7324C3.2474 34.901 2.70931 32.8242 2.69043 30.502H10.6201C10.7523 32.2201 11.1771 33.5511 11.8945 34.4951C12.612 35.4391 13.5371 35.9111 14.6699 35.9111C15.9915 35.9111 17.0111 35.2786 17.7285 34.0137C18.446 32.7298 18.8047 30.8229 18.8047 28.293C18.8047 25.9141 18.3704 24.1204 17.502 22.9121C16.6523 21.7038 15.4535 21.0996 13.9053 21.0996C12.3949 21.0996 11.2243 21.6188 10.3936 22.6572L9.88379 23.3652L3.51172 21.7227ZM46.8984 18.8906H54.9131V26.3389H46.8984V37.8652H39.3086V26.3389H31.1523V18.8906H39.3086V7.8457H46.8984V18.8906Z" fill="url(#paint0_linear)"/>
<path d="M24.1182 54.6035V62H22.9082V55.6494H20.96L20.8438 58.1582C20.7799 59.5482 20.5931 60.5348 20.2832 61.1182C19.9733 61.6969 19.4766 61.9909 18.793 62H18.3896V60.8857L18.6973 60.8584C19.0345 60.8128 19.2715 60.5872 19.4082 60.1816C19.5495 59.7715 19.6429 58.9671 19.6885 57.7686L19.8047 54.6035H24.1182ZM28.6846 62.1367C27.764 62.1367 27.0576 61.8633 26.5654 61.3164C26.0732 60.765 25.8226 59.9583 25.8135 58.8965V58.001C25.8135 56.8981 26.0527 56.0345 26.5312 55.4102C27.0143 54.7812 27.6865 54.4668 28.5479 54.4668C29.4137 54.4668 30.0609 54.7425 30.4893 55.2939C30.9176 55.8454 31.1364 56.7044 31.1455 57.8711V58.6641H27.0166V58.835C27.0166 59.6279 27.1647 60.2044 27.4609 60.5645C27.7617 60.9245 28.1924 61.1045 28.7529 61.1045C29.1084 61.1045 29.4206 61.0384 29.6895 60.9062C29.9629 60.7695 30.2181 60.5553 30.4551 60.2637L31.084 61.0293C30.5599 61.7676 29.7601 62.1367 28.6846 62.1367ZM28.5479 55.5059C28.0465 55.5059 27.6751 55.679 27.4336 56.0254C27.1921 56.3672 27.0553 56.9004 27.0234 57.625H29.9355V57.4609C29.9036 56.7591 29.776 56.2578 29.5527 55.957C29.334 55.6562 28.999 55.5059 28.5479 55.5059ZM37.1953 55.6289H35.1787V62H33.9756V55.6289H31.9863V54.6035H37.1953V55.6289Z" fill="#2E35AC"/>
<defs>
<linearGradient id="paint0_linear" x1="0" y1="2" x2="25.7646" y2="49.8593" gradientUnits="userSpaceOnUse">
<stop stop-color="#D10A42"/>
<stop offset="1" stop-color="#0041CA"/>
</linearGradient>
</defs>
</svg>

<svg width="57" height="63" fill="none" xmlns="http://www.w3.org/2000/svg"><path d="M3.512 21.723L5.55.766h19.966v6.853H12.12l-.736 8.836c1.548-1.038 3.143-1.557 4.786-1.557 3.398 0 6.013 1.208 7.845 3.625 1.85 2.416 2.775 5.833 2.775 10.251 0 4.135-1.095 7.468-3.285 9.998-2.19 2.53-5.117 3.794-8.78 3.794-2.17 0-4.181-.51-6.032-1.529a11.578 11.578 0 01-4.39-4.305c-1.057-1.831-1.595-3.908-1.614-6.23h7.93c.132 1.718.557 3.05 1.275 3.993.717.944 1.642 1.416 2.775 1.416 1.322 0 2.341-.632 3.059-1.897.717-1.284 1.076-3.191 1.076-5.721 0-2.379-.435-4.173-1.303-5.38-.85-1.21-2.048-1.813-3.597-1.813-1.51 0-2.68.519-3.511 1.557l-.51.708-6.372-1.642zm43.386-2.832h8.015v7.448h-8.015v11.526h-7.59V26.34h-8.156v-7.45h8.157V7.846h7.59V18.89z" fill="url(#paint0_linear)"/><path d="M24.118 54.603V62h-1.21v-6.35H20.96l-.116 2.508c-.064 1.39-.25 2.377-.56 2.96-.31.579-.807.873-1.491.882h-.403v-1.114l.307-.028c.338-.045.575-.27.711-.676.141-.41.235-1.215.28-2.413l.117-3.166h4.313zm4.567 7.534c-.921 0-1.627-.274-2.12-.82-.492-.552-.742-1.359-.752-2.42V58c0-1.103.24-1.966.718-2.59.483-.63 1.155-.944 2.017-.944.866 0 1.513.276 1.941.827.429.551.647 1.41.656 2.577v.793h-4.128v.171c0 .793.148 1.37.444 1.73.3.36.731.54 1.292.54.355 0 .668-.067.936-.199.274-.136.53-.35.766-.642l.629.765c-.524.739-1.324 1.108-2.4 1.108zm-.137-6.631c-.501 0-.873.173-1.114.52-.242.341-.379.874-.41 1.599h2.912v-.164c-.032-.702-.16-1.203-.383-1.504-.219-.3-.554-.451-1.005-.451zm8.647.123H35.18V62h-1.203v-6.371h-1.99v-1.026h5.21v1.026z" fill="#2E35AC"/><defs><linearGradient id="paint0_linear" x1="0" y1="2" x2="25.765" y2="49.859" gradientUnits="userSpaceOnUse"><stop stop-color="#D10A42"/><stop offset="1" stop-color="#0041CA"/></linearGradient></defs></svg>
